X:1
T:Title
%%score { ( 1 4 ) | ( 2 3 ) }
L:1/8
Q:1/4=100
M:4/4
K:F
V:1 treble nm="Grand Piano"
V:4 treble 
V:2 bass 
V:3 bass 
V:1
 [Fc]2 [Gc]2 [CFA]2 [A,CF]2 | [F,D][CE][K:treble] [A,CF]2 .[B,DB]2 [CFA]2 | [CEG]2 AB c2 A2 | %3
w: C.~B.~Rutenber * * *|||
 z2 [DF]2 E4 | z2 c2 z4 | [F,D][CE][K:treble] [A,CF]2 .[B,DB]2 [CFA]2 | [CEG]2 AB c2 F2 | G4 z4 | %8
w: |||||
 [EG]2 [Gc]2 e2 d2 | c2 =BA A2 G2 | G2 [Gc]2 [Ae]2 [FAd]2 | z4 c4 | c2 z2 z4 | %13
w: |||||
 [F,D][CE][K:treble] [A,CF]2 .[B,DB]2 [CFA]2 | [CEG]2 AB c2 d2 | [Ec]3 E F4 |] %16
w: |||
V:2
 [F,A,]2 [F,B,]2 F,2 F,2 | z G, A,,2 z E F,,2 | C,2[K:treble] [B,CE]2 [A,CF]2[K:bass] [F,CF]2 | %3
 [G,B,D]2 .[B,,B,]2 G,2 z2 | [F,A,C]2 .[F,B,D]2 [F,CF]2 [F,A,C]2 | z G, A,,2 z E F,,2 | %6
 C,2[K:treble] [B,CF]2 [A,CF]2[K:bass] [D,A,]2 | [C,B,]3 [F,A,] [F,A,C]4 | %8
 [C,C]2 [E,C]2[K:treble] [G,=B,G]2 [G,B,F]2 | [A,CE]2 [A,CF]2 [=B,DF]2 [B,DF]2 | %10
 [CE]2[K:bass] [E,E]2 [F,C]2 F,2 | G,2 G,2 C,2 D,E, | [A,F]B, F,2 F,2 F,2 | z G, A,,2 z E F,,2 | %14
 C,2[K:treble] [B,CE]2 [A,CF]2 [G,=B,F]2 | [C,B,]3 [C,B,C] [F,A,C]4 |] %16
V:3
 x8 | B,,2 z2 G,,2 z2 | x2[K:treble] x4[K:bass] x2 | z4 [C,C]4 | x8 | B,,2 z2 G,,2 z2 | %6
 x2[K:treble] x4[K:bass] x2 | x8 | x4[K:treble] x4 | x8 | x2[K:bass] x6 | x8 | F,2 z2 z4 | %13
 B,,2 z2 G,,2 z2 | x2[K:treble] x6 | x8 |] %16
V:4
 x8 | x2[K:treble] x6 | x8 | G2 z A, z2 A,B, | c2 z E A2 F2 | x2[K:treble] x6 | x8 | F2 EF F4 | %8
 x8 | x8 | x8 | [EGc]2 [DF=B]2 E2 FG | z G [CAc]2 [CFA]2 [A,CF]2 | x2[K:treble] x6 | x8 | x8 |] %16

